Sources/Ollin/Resources/Looks/WarmPrint.cube
# WarmPrint: the look bundled with Ollin, written by Ollin from four rules.
# On the encoded picture (the values a display shows), for every node of a
# 17-sided lattice over red, green, and blue:
#   1. each channel goes through one tone curve, blacks lifted to 0.035, whites
#      held at 0.975, and a gentle S through the middle:
#      tone(x) = 0.035 + 0.94 * (x + 0.28 * (x - 0.5) * 4x(1 - x))
#   2. the result is tinted by a split tone, slate in the shadows and amber in
#      the highlights: mix((0.88, 0.94, 1.00), (1.00, 0.93, 0.80), w)
#   3. where w = smoothstep(0.15, 0.85, luminance of the input)
#   4. and every channel is clamped to 0...1.
# Red runs fastest, then green, then blue. Six decimals.
TITLE "Warm Print"
LUT_3D_SIZE 5
DOMAIN_MIN 0.000000 0.000000 0.000000
DOMAIN_MAX 1.000000 1.000000 1.000000
0.030800 0.032900 0.035000
0.194172 0.032900 0.035000
0.444400 0.032900 0.035000
0.694679 0.032900 0.034996
0.860640 0.032892 0.034842
0.030821 0.207400 0.034965
0.195176 0.207327 0.034735
0.450301 0.207196 0.034318
0.711495 0.207018 0.033754
0.890146 0.206805 0.033077
0.031689 0.473631 0.033518
0.202457 0.473120 0.032810
0.470029 0.472564 0.032040
0.745447 0.471991 0.031244
0.933864 0.471426 0.030461
0.033226 0.737429 0.030956
0.212381 0.736561 0.030186
0.492204 0.735762 0.029478
0.777593 0.735075 0.028869
0.968396 0.734541 0.028395
0.034593 0.907695 0.028679
0.219653 0.907117 0.028263
0.504707 0.906797 0.028034
0.789350 0.906750 0.028000
0.975000 0.906750 0.028000
0.030800 0.032900 0.220650
0.194172 0.032900 0.220650
0.444400 0.032900 0.220650
0.695055 0.032898 0.220451
0.862301 0.032887 0.219028
0.030854 0.207383 0.220083
0.195639 0.207289 0.218205
0.451833 0.207140 0.215237
0.714460 0.206949 0.211410
0.894304 0.206726 0.206957
0.031828 0.473464 0.209849
0.203427 0.472935 0.205225
0.472358 0.472370 0.200290
0.749090 0.471796 0.195277
0.938157 0.471240 0.190417
0.033386 0.737129 0.193478
0.213324 0.736280 0.188730
0.494107 0.735514 0.184453
0.780000 0.734875 0.180876
0.970461 0.734402 0.178232
0.034688 0.907473 0.179793
0.220034 0.906977 0.177547
0.504960 0.906756 0.176549
0.789350 0.906750 0.176520
0.975000 0.906750 0.176520
0.030800 0.032900 0.505000
0.194172 0.032900 0.505000
0.444400 0.032900 0.505000
0.695779 0.032896 0.503773
0.864322 0.032881 0.499542
0.030902 0.207358 0.502556
0.196177 0.207244 0.497351
0.453501 0.207080 0.489831
0.717581 0.206876 0.480526
0.898583 0.206646 0.469967
0.031973 0.473290 0.476799
0.204419 0.472746 0.465915
0.474700 0.472175 0.454500
0.752694 0.471604 0.443085
0.942331 0.471060 0.432201
0.033543 0.736833 0.439033
0.214234 0.736008 0.428474
0.495899 0.735281 0.419169
0.782177 0.734693 0.411649
0.972169 0.734286 0.406444
0.034773 0.907277 0.409458
0.220328 0.906868 0.405227
0.505000 0.906750 0.404000
0.789350 0.906750 0.404000
0.975000 0.906750 0.404000
0.030800 0.032900 0.789350
0.194172 0.032900 0.789350
0.444440 0.032900 0.789246
0.696832 0.032892 0.785677
0.866678 0.032874 0.777640
0.030963 0.207325 0.783225
0.196786 0.207193 0.773767
0.455293 0.207014 0.760972
0.720837 0.206800 0.745669
0.902959 0.206563 0.728686
0.032123 0.473110 0.739637
0.205426 0.472554 0.722249
0.477042 0.471980 0.704314
0.756242 0.471415 0.686661
0.946365 0.470886 0.670118
0.033697 0.736545 0.680466
0.215106 0.735748 0.664534
0.497567 0.735064 0.650844
0.784103 0.734533 0.640225
0.973498 0.734197 0.633507
0.034846 0.907108 0.637284
0.220531 0.906794 0.632192
0.505000 0.906750 0.631480
0.789350 0.906750 0.631480
0.975000 0.906750 0.631480
0.030800 0.032900 0.975000
0.194172 0.032900 0.975000
0.444693 0.032898 0.974057
0.698194 0.032887 0.967660
0.869345 0.032866 0.956091
0.031037 0.207286 0.963993
0.197459 0.207137 0.950796
0.457196 0.206945 0.933824
0.724209 0.206722 0.914103
0.907407 0.206479 0.892655
0.032277 0.472924 0.906440
0.206444 0.472359 0.884619
0.479371 0.471786 0.862469
0.759712 0.471230 0.841015
0.950232 0.470719 0.821280
0.033846 0.736264 0.833577
0.215935 0.735501 0.814723
0.499099 0.734864 0.798987
0.785759 0.734395 0.787392
0.974422 0.734134 0.780963
0.034905 0.906970 0.784400
0.220636 0.906755 0.780106
0.505000 0.906750 0.780000
0.789350 0.906750 0.780000
0.975000 0.906750 0.780000
