Sources/Ollin/Resources/Looks/WarmPrint.cube
# WarmPrint: the look bundled with Ollin, written by Ollin from four rules.
# On the encoded picture (the values a display shows), for every node of a
# 17-sided lattice over red, green, and blue:
#   1. each channel goes through one tone curve, blacks lifted to 0.035, whites
#      held at 0.975, and a gentle S through the middle:
#      tone(x) = 0.035 + 0.94 * (x + 0.28 * (x - 0.5) * 4x(1 - x))
#   2. the result is tinted by a split tone, slate in the shadows and amber in
#      the highlights: mix((0.88, 0.94, 1.00), (1.00, 0.93, 0.80), w)
#   3. where w = smoothstep(0.15, 0.85, luminance of the input)
#   4. and every channel is clamped to 0...1.
# Red runs fastest, then green, then blue. Six decimals.
TITLE "Warm Print"
LUT_3D_SIZE 17
DOMAIN_MIN 0.000000 0.000000 0.000000
DOMAIN_MAX 1.000000 1.000000 1.000000
0.030800 0.032900 0.035000
0.058750 0.032900 0.035000
0.096200 0.032900 0.035000
0.141793 0.032900 0.035000
0.194172 0.032900 0.035000
0.251979 0.032900 0.035000
0.313858 0.032900 0.035000
0.378450 0.032900 0.035000
0.444400 0.032900 0.035000
0.510350 0.032900 0.035000
0.574943 0.032900 0.035000
0.636821 0.032900 0.035000
0.694679 0.032900 0.034996
0.747322 0.032899 0.034978
0.793429 0.032897 0.034946
0.831656 0.032895 0.034901
0.860640 0.032892 0.034842
0.030800 0.062756 0.035000
0.058750 0.062756 0.035000
0.096200 0.062756 0.035000
0.141793 0.062756 0.035000
0.194172 0.062756 0.035000
0.251979 0.062756 0.035000
0.313858 0.062756 0.035000
0.378450 0.062756 0.035000
0.444400 0.062756 0.035000
0.510436 0.062755 0.034991
0.575298 0.062753 0.034968
0.637674 0.062749 0.034931
0.696241 0.062745 0.034881
0.749661 0.062739 0.034818
0.796580 0.062731 0.034742
0.835626 0.062723 0.034655
0.865404 0.062714 0.034557
0.030800 0.102760 0.035000
0.058750 0.102760 0.035000
0.096200 0.102760 0.035000
0.141793 0.102760 0.035000
0.194172 0.102760 0.035000
0.251986 0.102759 0.034999
0.313952 0.102757 0.034985
0.378772 0.102753 0.034956
0.445141 0.102746 0.034914
0.511749 0.102738 0.034859
0.577277 0.102727 0.034792
0.640396 0.102715 0.034712
0.699761 0.102700 0.034621
0.754011 0.102684 0.034519
0.801766 0.102667 0.034406
0.841622 0.102648 0.034284
0.872154 0.102627 0.034153
0.030800 0.151461 0.035000
0.058750 0.151461 0.035000
0.096210 0.151460 0.034995
0.141860 0.151456 0.034976
0.194389 0.151448 0.034943
0.252491 0.151437 0.034896
0.314860 0.151423 0.034836
0.380191 0.151407 0.034764
0.447171 0.151387 0.034680
0.514478 0.151366 0.034585
0.580779 0.151341 0.034479
0.644723 0.151315 0.034363
0.704945 0.151286 0.034238
0.760056 0.151255 0.034103
0.808648 0.151222 0.033961
0.849290 0.151187 0.033810
0.880523 0.151151 0.033652
0.030821 0.207400 0.034965
0.058834 0.207388 0.034927
0.096434 0.207372 0.034876
0.142315 0.207351 0.034811
0.195176 0.207327 0.034735
0.253714 0.207300 0.034647
0.316625 0.207268 0.034547
0.382595 0.207234 0.034438
0.450301 0.207196 0.034318
0.518406 0.207156 0.034190
0.585557 0.207112 0.034052
0.650384 0.207066 0.033907
0.711495 0.207018 0.033754
0.767476 0.206968 0.033593
0.816890 0.206915 0.033427
0.858276 0.206861 0.033254
0.890146 0.206805 0.033077
0.030929 0.269071 0.034785
0.059089 0.269038 0.034704
0.096928 0.269001 0.034612
0.143151 0.268958 0.034509
0.196459 0.268912 0.034395
0.255550 0.268862 0.034273
0.319112 0.268808 0.034141
0.385821 0.268750 0.034000
0.454340 0.268690 0.033852
0.523314 0.268626 0.033696
0.591368 0.268560 0.033533
0.657108 0.268491 0.033365
0.719116 0.268419 0.033190
0.775953 0.268346 0.033011
0.826153 0.268271 0.032827
0.868226 0.268194 0.032639
0.900657 0.268115 0.032448
0.031119 0.334986 0.034469
0.059492 0.334927 0.034352
0.097652 0.334862 0.034226
0.144306 0.334793 0.034090
0.198155 0.334720 0.033947
0.257890 0.334643 0.033796
0.322188 0.334563 0.033638
0.389710 0.334479 0.033473
0.459101 0.334392 0.033302
0.528986 0.334302 0.033126
0.597966 0.334210 0.032944
0.664623 0.334115 0.032759
0.727513 0.334019 0.032570
0.785169 0.333921 0.032378
0.836099 0.333821 0.032183
0.878787 0.333721 0.031986
0.911691 0.333620 0.031788
0.031377 0.403663 0.034039
0.060017 0.403573 0.033893
0.098564 0.403479 0.033739
0.145721 0.403380 0.033578
0.200182 0.403277 0.033411
0.260627 0.403171 0.033238
0.325718 0.403062 0.033060
0.394099 0.402950 0.032877
0.464394 0.402835 0.032690
0.535203 0.402718 0.032500
0.605106 0.402599 0.032307
0.672657 0.402479 0.032111
0.736388 0.402358 0.031914
0.794806 0.402236 0.031715
0.846391 0.402113 0.031516
0.889605 0.401991 0.031317
0.922882 0.401869 0.031118
0.031689 0.473631 0.033518
0.060640 0.473509 0.033349
0.099623 0.473383 0.033174
0.147334 0.473253 0.032994
0.202457 0.473120 0.032810
0.263654 0.472984 0.032622
0.329570 0.472846 0.032430
0.398828 0.472706 0.032236
0.470029 0.472564 0.032040
0.541749 0.472422 0.031842
0.612543 0.472278 0.031643
0.680941 0.472134 0.031444
0.745447 0.471991 0.031244
0.804544 0.471848 0.031046
0.856692 0.471705 0.030849
0.900326 0.471565 0.030654
0.933864 0.471426 0.030461
0.032044 0.543429 0.032927
0.061335 0.543275 0.032742
0.100788 0.543118 0.032552
0.149087 0.542959 0.032360
0.204897 0.542797 0.032165
0.266864 0.542634 0.031968
0.333610 0.542470 0.031769
0.403735 0.542305 0.031570
0.475817 0.542140 0.031371
0.548406 0.541975 0.031172
0.620033 0.541811 0.030974
0.689201 0.541648 0.030778
0.754393 0.541487 0.030583
0.814067 0.541328 0.030392
0.866663 0.541172 0.030203
0.910597 0.541019 0.030019
0.944272 0.540870 0.029838
0.032427 0.611613 0.032289
0.062077 0.611430 0.032093
0.102018 0.611246 0.031896
0.150917 0.611060 0.031697
0.207420 0.610874 0.031498
0.270148 0.610688 0.031299
0.337703 0.610503 0.031100
0.408659 0.610319 0.030902
0.481568 0.610136 0.030707
0.554957 0.609955 0.030513
0.627329 0.609778 0.030323
0.697167 0.609603 0.030136
0.762930 0.609432 0.029952
0.823056 0.609265 0.029774
0.875966 0.609104 0.029601
0.920064 0.608947 0.029433
0.953741 0.608797 0.029272
0.032825 0.676751 0.031624
0.062842 0.676545 0.031425
0.103273 0.676339 0.031226
0.152765 0.676134 0.031028
0.209942 0.675931 0.030831
0.273401 0.675729 0.030636
0.341716 0.675530 0.030443
0.413439 0.675334 0.030254
0.487093 0.675142 0.030068
0.561183 0.674955 0.029887
0.634188 0.674772 0.029710
0.704568 0.674595 0.029539
0.770762 0.674424 0.029374
0.831191 0.674260 0.029215
0.884264 0.674103 0.029063
0.928374 0.673954 0.028919
0.961904 0.673814 0.028784
0.033226 0.737429 0.030956
0.063603 0.737207 0.030760
0.104511 0.736989 0.030566
0.154571 0.736773 0.030374
0.212381 0.736561 0.030186
0.276514 0.736353 0.030002
0.345516 0.736150 0.029822
0.417913 0.735953 0.029647
0.492204 0.735762 0.029478
0.566868 0.735578 0.029315
0.640364 0.735402 0.029159
0.711132 0.735234 0.029010
0.777593 0.735075 0.028869
0.838156 0.734926 0.028736
0.891220 0.734786 0.028613
0.935172 0.734658 0.028499
0.968396 0.734541 0.028395
0.033617 0.792246 0.030305
0.064337 0.792019 0.030119
0.105691 0.791798 0.029936
0.156273 0.791582 0.029758
0.214655 0.791372 0.029585
0.279379 0.791170 0.029418
0.348968 0.790975 0.029257
0.421920 0.790789 0.029104
0.496710 0.790611 0.028958
0.571795 0.790444 0.028820
0.645613 0.790287 0.028690
0.716587 0.790142 0.028570
0.783127 0.790008 0.028460
0.843632 0.789887 0.028360
0.896495 0.789779 0.028271
0.940105 0.789685 0.028194
0.972851 0.789606 0.028129
0.033983 0.839814 0.029694
0.065018 0.839594 0.029524
0.106772 0.839382 0.029359
0.157813 0.839178 0.029201
0.216680 0.838984 0.029050
0.281891 0.838800 0.028906
0.351939 0.838626 0.028771
0.425299 0.838464 0.028645
0.500422 0.838314 0.028529
0.575745 0.838177 0.028422
0.649689 0.838053 0.028326
0.720663 0.837944 0.028242
0.787069 0.837850 0.028169
0.847300 0.837772 0.028108
0.899752 0.837711 0.028060
0.942819 0.837667 0.028026
0.974905 0.837641 0.028006
0.034313 0.878754 0.029145
0.065621 0.878554 0.028997
0.107714 0.878365 0.028856
0.159128 0.878188 0.028725
0.218373 0.878023 0.028602
0.283940 0.877870 0.028489
0.354296 0.877732 0.028386
0.427888 0.877608 0.028294
0.503151 0.877499 0.028214
0.578501 0.877407 0.028145
0.652347 0.877332 0.028089
0.723088 0.877274 0.028046
0.789121 0.877234 0.028017
0.848843 0.877214 0.028002
0.900681 0.877212 0.028000
0.943238 0.877212 0.028000
0.975000 0.877212 0.028000
0.034593 0.907695 0.028679
0.066121 0.907529 0.028560
0.108475 0.907377 0.028450
0.160158 0.907239 0.028351
0.219653 0.907117 0.028263
0.285421 0.907011 0.028187
0.355903 0.906922 0.028123
0.429527 0.906850 0.028072
0.504707 0.906797 0.028034
0.579846 0.906764 0.028010
0.653342 0.906750 0.028000
0.723660 0.906750 0.028000
0.789350 0.906750 0.028000
0.848871 0.906750 0.028000
0.900681 0.906750 0.028000
0.943238 0.906750 0.028000
0.975000 0.906750 0.028000
0.030800 0.032900 0.066762
0.058750 0.032900 0.066762
0.096200 0.032900 0.066762
0.141793 0.032900 0.066762
0.194172 0.032900 0.066762
0.251979 0.032900 0.066762
0.313858 0.032900 0.066762
0.378450 0.032900 0.066762
0.444400 0.032900 0.066762
0.510350 0.032900 0.066762
0.574943 0.032900 0.066762
0.636821 0.032900 0.066762
0.694740 0.032900 0.066746
0.747458 0.032898 0.066703
0.793645 0.032897 0.066633
0.831954 0.032894 0.066537
0.861020 0.032891 0.066417
0.030800 0.062756 0.066762
0.058750 0.062756 0.066762
0.096200 0.062756 0.066762
0.141793 0.062756 0.066762
0.194172 0.062756 0.066762
0.251979 0.062756 0.066762
0.313858 0.062756 0.066762
0.378450 0.062756 0.066762
0.444411 0.062756 0.066759
0.510498 0.062755 0.066733
0.575422 0.062752 0.066680
0.637868 0.062748 0.066601
0.696512 0.062743 0.066496
0.750014 0.062736 0.066368
0.797017 0.062729 0.066216
0.836145 0.062720 0.066043
0.866002 0.062710 0.065849
0.030800 0.102760 0.066762
0.058750 0.102760 0.066762
0.096200 0.102760 0.066762
0.141793 0.102760 0.066762
0.194172 0.102760 0.066762
0.252001 0.102759 0.066753
0.314001 0.102756 0.066717
0.378866 0.102751 0.066654
0.445291 0.102744 0.066565
0.511964 0.102734 0.066452
0.577566 0.102723 0.066315
0.640765 0.102710 0.066155
0.700214 0.102695 0.065974
0.754550 0.102679 0.065773
0.802389 0.102661 0.065552
0.842326 0.102641 0.065314
0.872932 0.102620 0.065058
0.030800 0.151461 0.066762
0.058750 0.151461 0.066761
0.096219 0.151459 0.066743
0.141887 0.151453 0.066697
0.194443 0.151445 0.066625
0.252583 0.151433 0.066527
0.315002 0.151418 0.066405
0.380392 0.151401 0.066259
0.447440 0.151380 0.066092
0.514824 0.151358 0.065903
0.581207 0.151332 0.065695
0.645239 0.151305 0.065467
0.705549 0.151275 0.065222
0.760748 0.151244 0.064961
0.809424 0.151210 0.064683
0.850143 0.151175 0.064391
0.881444 0.151138 0.064086
0.030828 0.207396 0.066674
0.058852 0.207383 0.066592
0.096472 0.207365 0.066485
0.142383 0.207344 0.066354
0.195284 0.207318 0.066201
0.253873 0.207289 0.066026
0.316845 0.207257 0.065830
0.382886 0.207221 0.065614
0.450670 0.207183 0.065380
0.518860 0.207141 0.065129
0.586101 0.207097 0.064861
0.651019 0.207050 0.064579
0.712221 0.207001 0.064282
0.768289 0.206950 0.063972
0.817784 0.206897 0.063650
0.859242 0.206842 0.063318
0.891173 0.206785 0.062976
0.030945 0.269061 0.066301
0.059124 0.269026 0.066140
0.096992 0.268987 0.065957
0.143254 0.268943 0.065753
0.196613 0.268896 0.065531
0.255765 0.268844 0.065291
0.319398 0.268789 0.065033
0.386187 0.268730 0.064760
0.454792 0.268668 0.064472
0.523856 0.268604 0.064170
0.592003 0.268536 0.063856
0.657835 0.268467 0.063531
0.719934 0.268394 0.063195
0.776855 0.268320 0.062849
0.827131 0.268245 0.062496
0.869270 0.268167 0.062135
0.901754 0.268089 0.061768
0.031142 0.334966 0.065675
0.059540 0.334905 0.065446
0.097736 0.334839 0.065199
0.144438 0.334769 0.064936
0.198346 0.334695 0.064657
0.258150 0.334616 0.064364
0.322526 0.334535 0.064057
0.390133 0.334449 0.063739
0.459615 0.334361 0.063409
0.529592 0.334271 0.063070
0.598666 0.334178 0.062721
0.665415 0.334082 0.062365
0.728392 0.333986 0.062002
0.786128 0.333887 0.061634
0.837128 0.333787 0.061261
0.879873 0.333687 0.060884
0.912820 0.333586 0.060506
0.031406 0.403633 0.064836
0.060076 0.403542 0.064552
0.098664 0.403446 0.064254
0.145875 0.403346 0.063943
0.200402 0.403242 0.063620
0.260921 0.403134 0.063287
0.326095 0.403024 0.062944
0.394564 0.402911 0.062593
0.464950 0.402795 0.062234
0.535853 0.402678 0.061869
0.605847 0.402558 0.061498
0.673487 0.402438 0.061124
0.737299 0.402316 0.060747
0.795789 0.402194 0.060367
0.847436 0.402072 0.059987
0.890697 0.401949 0.059607
0.924006 0.401827 0.059229
0.031723 0.473590 0.063827
0.060707 0.473466 0.063500
0.099736 0.473339 0.063163
0.147506 0.473208 0.062817
0.202697 0.473074 0.062463
0.263972 0.472937 0.062101
0.329972 0.472799 0.061734
0.399318 0.472658 0.061362
0.470609 0.472516 0.060987
0.542420 0.472373 0.060609
0.613301 0.472229 0.060229
0.681780 0.472085 0.059849
0.746360 0.471942 0.059469
0.805521 0.471799 0.059092
0.857719 0.471657 0.058717
0.901389 0.471517 0.058346
0.934947 0.471379 0.057980
0.032081 0.543377 0.062689
0.061408 0.543222 0.062332
0.100910 0.543064 0.061968
0.149269 0.542904 0.061599
0.205149 0.542742 0.061226
0.267194 0.542578 0.060849
0.334023 0.542414 0.060471
0.404234 0.542249 0.060091
0.476402 0.542084 0.059711
0.549076 0.541919 0.059332
0.620782 0.541756 0.058955
0.690023 0.541593 0.058581
0.755278 0.541433 0.058212
0.815004 0.541275 0.057849
0.867638 0.541120 0.057492
0.911595 0.540968 0.057142
0.945277 0.540820 0.056801
0.032466 0.611551 0.061464
0.062154 0.611368 0.061089
0.102144 0.611183 0.060712
0.151104 0.610997 0.060332
0.207676 0.610811 0.059952
0.270480 0.610625 0.059572
0.338114 0.610440 0.059194
0.409151 0.610256 0.058818
0.482139 0.610074 0.058446
0.555604 0.609895 0.058079
0.628046 0.609718 0.057718
0.697944 0.609544 0.057363
0.763757 0.609375 0.057017
0.823921 0.609210 0.056680
0.876855 0.609050 0.056353
0.920962 0.608896 0.056037
0.954630 0.608747 0.055734
0.032866 0.676681 0.060194
0.062919 0.676475 0.059814
0.103399 0.676269 0.059434
0.152951 0.676065 0.059057
0.210193 0.675862 0.058683
0.273723 0.675661 0.058312
0.342112 0.675463 0.057947
0.413907 0.675269 0.057588
0.487631 0.675078 0.057236
0.561785 0.674892 0.056893
0.634847 0.674711 0.056560
0.705273 0.674536 0.056237
0.771501 0.674368 0.055925
0.831953 0.674206 0.055627
0.885033 0.674052 0.055343
0.929135 0.673906 0.055073
0.962641 0.673768 0.054820
0.033267 0.737353 0.058920
0.063679 0.737133 0.058547
0.104633 0.736915 0.058179
0.154749 0.736700 0.057815
0.212619 0.736490 0.057459
0.276816 0.736283 0.057110
0.345883 0.736083 0.056771
0.418341 0.735888 0.056441
0.492689 0.735699 0.056122
0.567404 0.735518 0.055815
0.640940 0.735344 0.055522
0.711737 0.735179 0.055243
0.778215 0.735023 0.054979
0.838782 0.734877 0.054732
0.891834 0.734742 0.054502
0.935760 0.734617 0.054292
0.968944 0.734504 0.054101
0.033655 0.792168 0.057685
0.064409 0.791943 0.057331
0.105805 0.791724 0.056986
0.156437 0.791510 0.056649
0.214872 0.791303 0.056323
0.279651 0.791103 0.056009
0.349292 0.790911 0.055707
0.422292 0.790727 0.055418
0.497124 0.790553 0.055145
0.572241 0.790390 0.054887
0.646082 0.790236 0.054646
0.717066 0.790095 0.054423
0.783602 0.789965 0.054220
0.844090 0.789849 0.054036
0.896921 0.789745 0.053874
0.940486 0.789657 0.053734
0.973174 0.789583 0.053618
0.034019 0.839738 0.056529
0.065083 0.839521 0.056207
0.106874 0.839312 0.055897
0.157956 0.839111 0.055600
0.216867 0.838920 0.055317
0.282120 0.838740 0.055049
0.352207 0.838570 0.054797
0.425599 0.838412 0.054563
0.500745 0.838266 0.054347
0.576081 0.838133 0.054150
0.650025 0.838015 0.053975
0.720987 0.837911 0.053820
0.787366 0.837822 0.053689
0.847558 0.837750 0.053582
0.899955 0.837694 0.053499
0.942956 0.837656 0.053443
0.974964 0.837636 0.053413
0.034344 0.878685 0.055495
0.065677 0.878489 0.055218
0.107800 0.878304 0.054955
0.159246 0.878130 0.054710
0.218523 0.877969 0.054482
0.284117 0.877822 0.054273
0.354494 0.877688 0.054084
0.428100 0.877569 0.053916
0.503364 0.877466 0.053770
0.578704 0.877379 0.053647
0.652527 0.877310 0.053549
0.723231 0.877258 0.053475
0.789212 0.877225 0.053429
0.848868 0.877212 0.053410
0.900681 0.877212 0.053409
0.943238 0.877212 0.053409
0.975000 0.877212 0.053409
0.034618 0.907638 0.054625
0.066165 0.907476 0.054404
0.108540 0.907329 0.054202
0.160244 0.907196 0.054020
0.219756 0.907079 0.053860
0.285534 0.906979 0.053722
0.356019 0.906895 0.053608
0.429634 0.906830 0.053519
0.504791 0.906784 0.053455
0.579895 0.906757 0.053419
0.653344 0.906750 0.053409
0.723660 0.906750 0.053409
0.789350 0.906750 0.053409
0.848871 0.906750 0.053409
0.900681 0.906750 0.053409
0.943238 0.906750 0.053409
0.975000 0.906750 0.053409
0.030800 0.032900 0.109319
0.058750 0.032900 0.109319
0.096200 0.032900 0.109319
0.141793 0.032900 0.109319
0.194172 0.032900 0.109319
0.251979 0.032900 0.109319
0.313858 0.032900 0.109319
0.378450 0.032900 0.109319
0.444400 0.032900 0.109319
0.510350 0.032900 0.109319
0.574943 0.032900 0.109319
0.636835 0.032900 0.109315
0.694822 0.032899 0.109274
0.747617 0.032898 0.109188
0.793885 0.032896 0.109059
0.832277 0.032893 0.108889
0.861424 0.032890 0.108679
0.030800 0.062756 0.109319
0.058750 0.062756 0.109319
0.096200 0.062756 0.109319
0.141793 0.062756 0.109319
0.194172 0.062756 0.109319
0.251979 0.062756 0.109319
0.313858 0.062756 0.109319
0.378450 0.062756 0.109319
0.444437 0.062756 0.109305
0.510576 0.062754 0.109248
0.575563 0.062751 0.109146
0.638081 0.062746 0.109001
0.696803 0.062741 0.108817
0.750387 0.062734 0.108593
0.797474 0.062726 0.108333
0.836685 0.062717 0.108037
0.866619 0.062707 0.107708
0.030800 0.102760 0.109319
0.058750 0.102760 0.109319
0.096200 0.102760 0.109319
0.141793 0.102760 0.109319
0.194172 0.102760 0.109318
0.252025 0.102758 0.109290
0.314060 0.102754 0.109216
0.378971 0.102749 0.109098
0.445453 0.102741 0.108939
0.512193 0.102731 0.108740
0.577870 0.102719 0.108502
0.641149 0.102705 0.108229
0.700683 0.102690 0.107921
0.755106 0.102673 0.107580
0.803030 0.102654 0.107209
0.843047 0.102634 0.106808
0.873725 0.102613 0.106380
0.030800 0.151461 0.109319
0.058752 0.151461 0.109313
0.096231 0.151457 0.109268
0.141918 0.151451 0.109178
0.194504 0.151441 0.109045
0.252683 0.151428 0.108871
0.315152 0.151412 0.108658
0.380602 0.151394 0.108407
0.447720 0.151373 0.108121
0.515182 0.151349 0.107801
0.581649 0.151323 0.107449
0.645768 0.151295 0.107066
0.706167 0.151265 0.106655
0.761453 0.151233 0.106218
0.810214 0.151199 0.105756
0.851009 0.151163 0.105270
0.882377 0.151125 0.104763
0.030835 0.207392 0.109134
0.058872 0.207377 0.108986
0.096513 0.207358 0.108798
0.142455 0.207335 0.108571
0.195397 0.207309 0.108307
0.254039 0.207279 0.108008
0.317073 0.207245 0.107676
0.383185 0.207209 0.107313
0.451049 0.207169 0.106920
0.519325 0.207126 0.106499
0.586655 0.207081 0.106052
0.651665 0.207034 0.105581
0.712957 0.206984 0.105088
0.769113 0.206932 0.104574
0.818689 0.206878 0.104041
0.860218 0.206823 0.103491
0.892209 0.206766 0.102926
0.030961 0.269049 0.108479
0.059160 0.269013 0.108202
0.097057 0.268972 0.107891
0.143360 0.268927 0.107547
0.196770 0.268878 0.107173
0.255985 0.268826 0.106770
0.319690 0.268769 0.106339
0.386558 0.268710 0.105884
0.455250 0.268647 0.105404
0.524405 0.268581 0.104903
0.592645 0.268513 0.104382
0.658570 0.268442 0.103843
0.720759 0.268370 0.103287
0.777764 0.268295 0.102717
0.828117 0.268218 0.102134
0.870320 0.268141 0.101540
0.902855 0.268062 0.100937
0.031166 0.334946 0.107415
0.059589 0.334883 0.107030
0.097822 0.334816 0.106616
0.144572 0.334744 0.106176
0.198540 0.334668 0.105712
0.258414 0.334589 0.105224
0.322868 0.334506 0.104716
0.390561 0.334420 0.104188
0.460133 0.334331 0.103642
0.530204 0.334239 0.103081
0.599372 0.334146 0.102506
0.666212 0.334050 0.101919
0.729276 0.333952 0.101321
0.787091 0.333853 0.100715
0.838160 0.333753 0.100102
0.880962 0.333653 0.099484
0.913950 0.333551 0.098863
0.031436 0.403603 0.106010
0.060136 0.403510 0.105537
0.098767 0.403412 0.105041
0.146032 0.403311 0.104526
0.200624 0.403206 0.103991
0.261218 0.403097 0.103440
0.326474 0.402986 0.102873
0.395032 0.402872 0.102294
0.465510 0.402755 0.101702
0.536505 0.402637 0.101102
0.606592 0.402518 0.100493
0.674319 0.402397 0.099878
0.738212 0.402275 0.099259
0.796774 0.402153 0.098637
0.848481 0.402030 0.098014
0.891789 0.401908 0.097393
0.925128 0.401786 0.096775
0.031758 0.473548 0.104333
0.060775 0.473424 0.103792
0.099851 0.473295 0.103235
0.147679 0.473163 0.102664
0.202939 0.473028 0.102080
0.264291 0.472891 0.101485
0.330375 0.472751 0.100881
0.399810 0.472610 0.100270
0.471191 0.472467 0.099653
0.543091 0.472324 0.099032
0.614059 0.472180 0.098410
0.682619 0.472037 0.097788
0.747272 0.471893 0.097167
0.806495 0.471751 0.096550
0.858742 0.471610 0.095939
0.902448 0.471470 0.095334
0.936024 0.471332 0.094739
0.032119 0.543325 0.102452
0.061482 0.543169 0.101864
0.101032 0.543010 0.101266
0.149452 0.542849 0.100659
0.205402 0.542687 0.100046
0.267524 0.542523 0.099427
0.334436 0.542358 0.098806
0.404733 0.542193 0.098184
0.476987 0.542028 0.097562
0.549744 0.541864 0.096942
0.621529 0.541700 0.096327
0.690842 0.541539 0.095718
0.756159 0.541379 0.095116
0.815935 0.541222 0.094524
0.868606 0.541068 0.093944
0.912585 0.540918 0.093376
0.946271 0.540771 0.092824
0.032506 0.611489 0.100436
0.062231 0.611305 0.099821
0.102271 0.611120 0.099201
0.151291 0.610934 0.098580
0.207931 0.610748 0.097957
0.270811 0.610562 0.097336
0.338524 0.610378 0.096718
0.409641 0.610194 0.096104
0.482708 0.610013 0.095498
0.556247 0.609834 0.094899
0.628757 0.609659 0.094311
0.698716 0.609486 0.093735
0.764577 0.609318 0.093173
0.824777 0.609155 0.092626
0.877733 0.608997 0.092097
0.921847 0.608844 0.091587
0.955506 0.608698 0.091098
0.032907 0.676611 0.098353
0.062996 0.676405 0.097731
0.103525 0.676200 0.097110
0.153135 0.675996 0.096494
0.210444 0.675793 0.095883
0.274044 0.675594 0.095279
0.342505 0.675397 0.094684
0.414372 0.675203 0.094100
0.488165 0.675014 0.093529
0.562382 0.674830 0.092972
0.635498 0.674651 0.092432
0.705969 0.674478 0.091909
0.772231 0.674312 0.091406
0.832702 0.674153 0.090925
0.885788 0.674001 0.090468
0.929880 0.673858 0.090035
0.963361 0.673724 0.089630
0.033307 0.737278 0.096271
0.063754 0.737058 0.095662
0.104755 0.736842 0.095061
0.154925 0.736628 0.094470
0.212856 0.736419 0.093891
0.277115 0.736215 0.093324
0.346245 0.736016 0.092773
0.418765 0.735823 0.092239
0.493168 0.735637 0.091724
0.567931 0.735458 0.091229
0.641507 0.735287 0.090756
0.712331 0.735125 0.090307
0.778824 0.734973 0.089885
0.839392 0.734830 0.089490
0.892431 0.734698 0.089124
0.936330 0.734577 0.088790
0.969471 0.734469 0.088488
0.033693 0.792091 0.094258
0.064480 0.791868 0.093683
0.105919 0.791650 0.093122
0.156599 0.791439 0.092577
0.215086 0.791234 0.092049
0.279918 0.791037 0.091541
0.349611 0.790847 0.091054
0.422658 0.790667 0.090590
0.497529 0.790497 0.090150
0.572678 0.790336 0.089737
0.646538 0.790187 0.089353
0.717530 0.790049 0.088998
0.784061 0.789924 0.088676
0.844529 0.789812 0.088387
0.897326 0.789714 0.088134
0.940843 0.789630 0.087918
0.973471 0.789561 0.087741
0.034053 0.839664 0.092383
0.065147 0.839449 0.091862
0.106975 0.839243 0.091361
0.158098 0.839045 0.090882
0.217051 0.838858 0.090427
0.282345 0.838681 0.089997
0.352469 0.838515 0.089594
0.425890 0.838361 0.089220
0.501058 0.838219 0.088877
0.576404 0.838092 0.088567
0.650347 0.837978 0.088291
0.721294 0.837879 0.088051
0.787645 0.837796 0.087849
0.847793 0.837729 0.087686
0.900135 0.837679 0.087566
0.943067 0.837647 0.087488
0.974995 0.837634 0.087456
0.034374 0.878617 0.090714
0.065731 0.878425 0.090267
0.107884 0.878244 0.089847
0.159361 0.878074 0.089455
0.218668 0.877918 0.089092
0.284288 0.877775 0.088760
0.354685 0.877646 0.088462
0.428301 0.877533 0.088199
0.503565 0.877435 0.087973
0.578893 0.877354 0.087785
0.652689 0.877290 0.087637
0.723353 0.877245 0.087532
0.789280 0.877219 0.087471
0.848871 0.877212 0.087455
0.900681 0.877212 0.087455
0.943238 0.877212 0.087455
0.975000 0.877212 0.087455
0.034642 0.907581 0.089319
0.066208 0.907424 0.088967
0.108603 0.907282 0.088648
0.160327 0.907155 0.088362
0.219854 0.907043 0.088112
0.285641 0.906948 0.087900
0.356125 0.906871 0.087726
0.429728 0.906812 0.087594
