Sources/Ollin/Resources/Looks/WarmPrint.cube
# WarmPrint: the look bundled with Ollin, written by Ollin from four rules.
# On the encoded picture (the values a display shows), for every node of a
# 17-sided lattice over red, green, and blue:
#   1. each channel goes through one tone curve, blacks lifted to 0.035, whites
#      held at 0.975, and a gentle S through the middle:
#      tone(x) = 0.035 + 0.94 * (x + 0.28 * (x - 0.5) * 4x(1 - x))
#   2. the result is tinted by a split tone, slate in the shadows and amber in
#      the highlights: mix((0.88, 0.94, 1.00), (1.00, 0.93, 0.80), w)
#   3. where w = smoothstep(0.15, 0.85, luminance of the input)
#   4. and every channel is clamped to 0...1.
# Red runs fastest, then green, then blue. Six decimals.
TITLE "Warm Print"
LUT_3D_SIZE 9
DOMAIN_MIN 0.000000 0.000000 0.000000
DOMAIN_MAX 1.000000 1.000000 1.000000
0.030800 0.032900 0.035000
0.096200 0.032900 0.035000
0.194172 0.032900 0.035000
0.313858 0.032900 0.035000
0.444400 0.032900 0.035000
0.574943 0.032900 0.035000
0.694679 0.032900 0.034996
0.793429 0.032897 0.034946
0.860640 0.032892 0.034842
0.030800 0.102760 0.035000
0.096200 0.102760 0.035000
0.194172 0.102760 0.035000
0.313952 0.102757 0.034985
0.445141 0.102746 0.034914
0.577277 0.102727 0.034792
0.699761 0.102700 0.034621
0.801766 0.102667 0.034406
0.872154 0.102627 0.034153
0.030821 0.207400 0.034965
0.096434 0.207372 0.034876
0.195176 0.207327 0.034735
0.316625 0.207268 0.034547
0.450301 0.207196 0.034318
0.585557 0.207112 0.034052
0.711495 0.207018 0.033754
0.816890 0.206915 0.033427
0.890146 0.206805 0.033077
0.031119 0.334986 0.034469
0.097652 0.334862 0.034226
0.198155 0.334720 0.033947
0.322188 0.334563 0.033638
0.459101 0.334392 0.033302
0.597966 0.334210 0.032944
0.727513 0.334019 0.032570
0.836099 0.333821 0.032183
0.911691 0.333620 0.031788
0.031689 0.473631 0.033518
0.099623 0.473383 0.033174
0.202457 0.473120 0.032810
0.329570 0.472846 0.032430
0.470029 0.472564 0.032040
0.612543 0.472278 0.031643
0.745447 0.471991 0.031244
0.856692 0.471705 0.030849
0.933864 0.471426 0.030461
0.032427 0.611613 0.032289
0.102018 0.611246 0.031896
0.207420 0.610874 0.031498
0.337703 0.610503 0.031100
0.481568 0.610136 0.030707
0.627329 0.609778 0.030323
0.762930 0.609432 0.029952
0.875966 0.609104 0.029601
0.953741 0.608797 0.029272
0.033226 0.737429 0.030956
0.104511 0.736989 0.030566
0.212381 0.736561 0.030186
0.345516 0.736150 0.029822
0.492204 0.735762 0.029478
0.640364 0.735402 0.029159
0.777593 0.735075 0.028869
0.891220 0.734786 0.028613
0.968396 0.734541 0.028395
0.033983 0.839814 0.029694
0.106772 0.839382 0.029359
0.216680 0.838984 0.029050
0.351939 0.838626 0.028771
0.500422 0.838314 0.028529
0.649689 0.838053 0.028326
0.787069 0.837850 0.028169
0.899752 0.837711 0.028060
0.974905 0.837641 0.028006
0.034593 0.907695 0.028679
0.108475 0.907377 0.028450
0.219653 0.907117 0.028263
0.355903 0.906922 0.028123
0.504707 0.906797 0.028034
0.653342 0.906750 0.028000
0.789350 0.906750 0.028000
0.900681 0.906750 0.028000
0.975000 0.906750 0.028000
0.030800 0.032900 0.109319
0.096200 0.032900 0.109319
0.194172 0.032900 0.109319
0.313858 0.032900 0.109319
0.444400 0.032900 0.109319
0.574943 0.032900 0.109319
0.694822 0.032899 0.109274
0.793885 0.032896 0.109059
0.861424 0.032890 0.108679
0.030800 0.102760 0.109319
0.096200 0.102760 0.109319
0.194172 0.102760 0.109318
0.314060 0.102754 0.109216
0.445453 0.102741 0.108939
0.577870 0.102719 0.108502
0.700683 0.102690 0.107921
0.803030 0.102654 0.107209
0.873725 0.102613 0.106380
0.030835 0.207392 0.109134
0.096513 0.207358 0.108798
0.195397 0.207309 0.108307
0.317073 0.207245 0.107676
0.451049 0.207169 0.106920
0.586655 0.207081 0.106052
0.712957 0.206984 0.105088
0.818689 0.206878 0.104041
0.892209 0.206766 0.102926
0.031166 0.334946 0.107415
0.097822 0.334816 0.106616
0.198540 0.334668 0.105712
0.322868 0.334506 0.104716
0.460133 0.334331 0.103642
0.599372 0.334146 0.102506
0.729276 0.333952 0.101321
0.838160 0.333753 0.100102
0.913950 0.333551 0.098863
0.031758 0.473548 0.104333
0.099851 0.473295 0.103235
0.202939 0.473028 0.102080
0.330375 0.472751 0.100881
0.471191 0.472467 0.099653
0.614059 0.472180 0.098410
0.747272 0.471893 0.097167
0.858742 0.471610 0.095939
0.936024 0.471332 0.094739
0.032506 0.611489 0.100436
0.102271 0.611120 0.099201
0.207931 0.610748 0.097957
0.338524 0.610378 0.096718
0.482708 0.610013 0.095498
0.628757 0.609659 0.094311
0.764577 0.609318 0.093173
0.877733 0.608997 0.092097
0.955506 0.608698 0.091098
0.033307 0.737278 0.096271
0.104755 0.736842 0.095061
0.212856 0.736419 0.093891
0.346245 0.736016 0.092773
0.493168 0.735637 0.091724
0.641507 0.735287 0.090756
0.778824 0.734973 0.089885
0.892431 0.734698 0.089124
0.969471 0.734469 0.088488
0.034053 0.839664 0.092383
0.106975 0.839243 0.091361
0.217051 0.838858 0.090427
0.352469 0.838515 0.089594
0.501058 0.838219 0.088877
0.650347 0.837978 0.088291
0.787645 0.837796 0.087849
0.900135 0.837679 0.087566
0.974995 0.837634 0.087456
0.034642 0.907581 0.089319
0.108603 0.907282 0.088648
0.219854 0.907043 0.088112
0.356125 0.906871 0.087726
0.504862 0.906772 0.087505
0.653344 0.906750 0.087455
0.789350 0.906750 0.087455
0.900681 0.906750 0.087455
0.975000 0.906750 0.087455
0.030800 0.032900 0.220650
0.096200 0.032900 0.220650
0.194172 0.032900 0.220650
0.313858 0.032900 0.220650
0.444400 0.032900 0.220650
0.574943 0.032900 0.220650
0.695055 0.032898 0.220451
0.794435 0.032894 0.219901
0.862301 0.032887 0.219028
0.030800 0.102760 0.220650
0.096200 0.102760 0.220650
0.194190 0.102759 0.220620
0.314207 0.102751 0.220290
0.445816 0.102734 0.219619
0.578522 0.102710 0.218635
0.701671 0.102678 0.217369
0.804360 0.102641 0.215848
0.875359 0.102597 0.214102
0.030854 0.207383 0.220083
0.096603 0.207343 0.219295
0.195639 0.207289 0.218205
0.317550 0.207221 0.216843
0.451833 0.207140 0.215237
0.587793 0.207049 0.213417
0.714460 0.206949 0.211410
0.820526 0.206841 0.209247
0.894304 0.206726 0.206957
0.031215 0.334904 0.216285
0.098000 0.334768 0.214598
0.198938 0.334615 0.212706
0.323566 0.334448 0.210639
0.461185 0.334269 0.208427
0.600798 0.334081 0.206097
0.731056 0.333885 0.203679
0.840233 0.333685 0.201201
0.916212 0.333482 0.198694
0.031828 0.473464 0.209849
0.100083 0.473206 0.207591
0.203427 0.472935 0.205225
0.331186 0.472655 0.202782
0.472358 0.472370 0.200290
0.615575 0.472083 0.197779
0.749090 0.471796 0.195277
0.860777 0.471514 0.192813
0.938157 0.471240 0.190417
0.032586 0.611364 0.201879
0.102524 0.610994 0.199377
0.208443 0.610622 0.196865
0.339341 0.610253 0.194374
0.483837 0.609891 0.191931
0.630166 0.609541 0.189566
0.766194 0.609207 0.187308
0.879457 0.608893 0.185186
0.957215 0.608603 0.183228
0.033386 0.737129 0.193478
0.104997 0.736696 0.191060
0.213324 0.736280 0.188730
0.346959 0.735884 0.186518
0.494107 0.735514 0.184453
0.642609 0.735176 0.182562
0.780000 0.734875 0.180876
0.893571 0.734615 0.179423
0.970461 0.734402 0.178232
0.034122 0.839517 0.185748
0.107172 0.839108 0.183743
0.217408 0.838736 0.181923
0.352972 0.838409 0.180318
0.501653 0.838131 0.178958
0.650946 0.837909 0.177869
0.788141 0.837748 0.177083
0.900418 0.837655 0.176627
0.975000 0.837634 0.176520
0.034688 0.907473 0.179793
0.108722 0.907194 0.178528
0.220034 0.906977 0.177547
0.356310 0.906829 0.176877
0.504960 0.906756 0.176549
0.653344 0.906750 0.176520
0.789350 0.906750 0.176520
0.900681 0.906750 0.176520
0.975000 0.906750 0.176520
0.030800 0.032900 0.356656
0.096200 0.032900 0.356656
0.194172 0.032900 0.356656
0.313858 0.032900 0.356656
0.444400 0.032900 0.356656
0.574990 0.032900 0.356613
0.695375 0.032897 0.356094
0.795076 0.032892 0.355022
0.863268 0.032884 0.353444
0.030800 0.102760 0.356656
0.096200 0.102760 0.356656
0.194233 0.102757 0.356491
0.314392 0.102746 0.355765
0.446229 0.102727 0.354504
0.579232 0.102700 0.352753
0.702721 0.102666 0.350562
0.805754 0.102627 0.347975
0.877053 0.102582 0.345040
0.030876 0.207371 0.355365
0.096704 0.207326 0.353921
0.195899 0.207267 0.352004
0.318053 0.207195 0.349663
0.452651 0.207111 0.346944
0.588969 0.207016 0.343894
0.716002 0.206913 0.340560
0.822400 0.206803 0.336989
0.896430 0.206686 0.333227
0.031268 0.334860 0.348715
0.098184 0.334718 0.345870
0.199349 0.334560 0.342711
0.324280 0.334388 0.339285
0.462256 0.334206 0.335639
0.602242 0.334015 0.331819
0.732851 0.333818 0.327872
0.842314 0.333616 0.323846
0.918474 0.333413 0.319787
0.031900 0.473378 0.337980
0.100318 0.473115 0.334266
0.203920 0.472841 0.330394
0.332003 0.472559 0.326413
0.473528 0.472273 0.322370
0.617089 0.471985 0.318310
0.750898 0.471700 0.314282
0.862792 0.471420 0.310331
0.940260 0.471149 0.306505
0.032667 0.611239 0.324946
0.102778 0.610867 0.320891
0.208953 0.610496 0.316838
0.340152 0.610129 0.312832
0.484954 0.609771 0.308921
0.631552 0.609426 0.305152
0.767776 0.609098 0.301571
0.881134 0.608791 0.298226
0.958864 0.608511 0.295163
0.033465 0.736980 0.311395
0.105235 0.736553 0.307530
0.213783 0.736143 0.303824
0.347657 0.735755 0.300323
0.495017 0.735396 0.297075
0.643670 0.735069 0.294127
0.781119 0.734781 0.291524
0.894637 0.734537 0.289314
0.971361 0.734341 0.287544
0.034188 0.839374 0.299109
0.107362 0.838977 0.295965
0.217750 0.838620 0.293136
0.353449 0.838309 0.290671
0.502204 0.838049 0.288616
0.651483 0.837847 0.287018
0.788556 0.837709 0.285923
0.900601 0.837640 0.285378
0.975000 0.837634 0.285325
0.034732 0.907372 0.289873
0.108831 0.907113 0.287979
0.220192 0.906919 0.286558
0.356456 0.906796 0.285658
0.504999 0.906750 0.285326
0.653344 0.906750 0.285325
0.789350 0.906750 0.285325
0.900681 0.906750 0.285325
0.975000 0.906750 0.285325
0.030800 0.032900 0.505000
0.096200 0.032900 0.505000
0.194172 0.032900 0.505000
0.313858 0.032900 0.505000
0.444400 0.032900 0.505000
0.575112 0.032899 0.504781
0.695779 0.032896 0.503773
0.795805 0.032890 0.502004
0.864322 0.032881 0.499542
0.030800 0.102760 0.505000
0.096201 0.102760 0.504997
0.194301 0.102754 0.504506
0.314615 0.102740 0.503213
0.446689 0.102718 0.501185
0.579998 0.102689 0.498487
0.703832 0.102653 0.495186
0.807208 0.102612 0.491348
0.878804 0.102565 0.487041
0.030902 0.207358 0.502556
0.096814 0.207308 0.500276
0.196177 0.207244 0.497351
0.318583 0.207167 0.493847
0.453501 0.207080 0.489831
0.590181 0.206982 0.485368
0.717581 0.206876 0.480526
0.824307 0.206764 0.475370
0.898583 0.206646 0.469967
0.031322 0.334813 0.492441
0.098375 0.334666 0.488255
0.199770 0.334503 0.483646
0.325010 0.334328 0.478682
0.463343 0.334142 0.473428
0.603702 0.333949 0.467951
0.734657 0.333750 0.462317
0.844400 0.333548 0.456593
0.920734 0.333345 0.450845
0.031973 0.473290 0.476799
0.100557 0.473023 0.471456
0.204419 0.472746 0.465915
0.332824 0.472462 0.460241
0.474700 0.472175 0.454500
0.618599 0.471888 0.448759
0.752694 0.471604 0.443085
0.864786 0.471327 0.437544
0.942331 0.471060 0.432201
0.032748 0.611113 0.458155
0.103032 0.610741 0.452407
0.209460 0.610371 0.446683
0.340957 0.610006 0.441049
0.486057 0.609652 0.435572
0.632914 0.609312 0.430318
0.769323 0.608991 0.425354
0.882762 0.608693 0.420745
0.960452 0.608422 0.416559
0.033543 0.736833 0.439033
0.105470 0.736411 0.433630
0.214234 0.736008 0.428474
0.348337 0.735630 0.423632
0.495899 0.735281 0.419169
0.644687 0.734967 0.415153
0.782177 0.734693 0.411649
0.895627 0.734465 0.408724
0.972169 0.734286 0.406444
0.034253 0.839235 0.421959
0.107546 0.838851 0.417652
0.218077 0.838509 0.413814
0.353896 0.838214 0.410513
0.502711 0.837974 0.407815
0.651957 0.837793 0.405787
0.788887 0.837678 0.404494
0.900678 0.837634 0.404003
0.975000 0.837634 0.404000
0.034773 0.907277 0.409458
0.108930 0.907039 0.406996
0.220328 0.906868 0.405227
0.356564 0.906771 0.404219
0.505000 0.906750 0.404000
0.653344 0.906750 0.404000
0.789350 0.906750 0.404000
0.900681 0.906750 0.404000
0.975000 0.906750 0.404000
0.030800 0.032900 0.653344
0.096200 0.032900 0.653344
0.194172 0.032900 0.653344
0.313858 0.032900 0.653344
0.444401 0.032900 0.653342
0.575309 0.032898 0.652733
0.696266 0.032894 0.651085
0.796620 0.032887 0.648483
0.865460 0.032878 0.645012
0.030800 0.102760 0.653344
0.096210 0.102759 0.653246
0.194394 0.102750 0.652249
0.314873 0.102734 0.650243
0.447196 0.102709 0.647315
0.580819 0.102678 0.643550
0.705001 0.102640 0.639034
0.808721 0.102597 0.633853
0.880609 0.102548 0.628093
0.030931 0.207342 0.649280
0.096934 0.207288 0.646037
0.196473 0.207219 0.641989
0.319138 0.207139 0.637221
0.454383 0.207048 0.631819
0.591428 0.206947 0.625869
0.719193 0.206839 0.619456
0.826245 0.206724 0.612667
0.900760 0.206605 0.605588
0.031379 0.334765 0.635323
0.098573 0.334612 0.629711
0.200203 0.334445 0.623583
0.325754 0.334266 0.617024
0.464446 0.334077 0.610119
0.605176 0.333882 0.602955
0.736474 0.333681 0.595617
0.846490 0.333479 0.588191
0.922988 0.333276 0.580764
0.032047 0.473201 0.614545
0.100799 0.472930 0.607536
0.204921 0.472650 0.600299
0.333649 0.472365 0.592919
0.475872 0.472077 0.585483
0.620103 0.471791 0.578076
0.754476 0.471509 0.570783
0.866755 0.471235 0.563692
0.944367 0.470972 0.556886
0.032829 0.610987 0.590214
0.103285 0.610615 0.582778
0.209966 0.610246 0.575403
0.341754 0.609885 0.568174
0.487144 0.609535 0.561176
0.634251 0.609201 0.554497
0.770832 0.608887 0.548221
0.884337 0.608598 0.542434
0.961974 0.608337 0.537223
0.033620 0.736688 0.565595
0.105702 0.736272 0.558703
0.214675 0.735877 0.552161
0.348999 0.735508 0.546053
0.496749 0.735170 0.540466
0.645658 0.734869 0.535485
0.783172 0.734610 0.531197
0.896536 0.734398 0.527686
0.972883 0.734238 0.525040
0.034316 0.839100 0.543954
0.107722 0.838730 0.538578
0.218388 0.838403 0.533839
0.354315 0.838126 0.529824
0.503171 0.837905 0.526618
0.652364 0.837746 0.524307
0.789131 0.837654 0.522977
0.900681 0.837634 0.522675
0.975000 0.837634 0.522675
0.034811 0.907189 0.528559
0.109018 0.906973 0.525669
0.220441 0.906827 0.523705
0.356631 0.906756 0.522753
0.505000 0.906750 0.522675
0.653344 0.906750 0.522675
0.789350 0.906750 0.522675
0.900681 0.906750 0.522675
0.975000 0.906750 0.522675
0.030800 0.032900 0.789350
0.096200 0.032900 0.789350
0.194172 0.032900 0.789350
0.313858 0.032900 0.789350
0.444440 0.032900 0.789246
0.575577 0.032897 0.788072
0.696832 0.032892 0.785677
0.797518 0.032884 0.782165
0.866678 0.032874 0.777640
0.030800 0.102760 0.789350
0.096232 0.102757 0.788966
0.194510 0.102746 0.787336
0.315166 0.102726 0.784523
0.447747 0.102699 0.780630
0.581691 0.102666 0.775761
0.706225 0.102626 0.770021
0.810289 0.102581 0.763512
0.882465 0.102531 0.756338
0.030963 0.207325 0.783225
0.097063 0.207266 0.778965
0.196786 0.207193 0.773767
0.319717 0.207109 0.767735
0.455293 0.207014 0.760972
0.592706 0.206911 0.753582
0.720837 0.206800 0.745669
0.828210 0.206684 0.737336
0.902959 0.206563 0.728686
0.031438 0.334715 0.765352
0.098777 0.334556 0.758349
0.200645 0.334385 0.750756
0.326510 0.334202 0.742678
0.465563 0.334011 0.734218
0.606662 0.333814 0.725479
0.738298 0.333613 0.716566
0.848580 0.333410 0.707582
0.925233 0.333207 0.698631
0.032123 0.473110 0.739637
0.101044 0.472836 0.731063
0.205426 0.472554 0.722249
0.334475 0.472267 0.713298
0.477042 0.471980 0.704314
0.621600 0.471695 0.695400
0.756242 0.471415 0.686661
0.868696 0.471144 0.678199
0.946365 0.470886 0.670118
0.032910 0.610860 0.710026
0.103537 0.610489 0.701055
0.210467 0.610122 0.692193
0.342542 0.609764 0.683543
0.488215 0.609419 0.675207
0.635559 0.609092 0.667291
0.772299 0.608786 0.659898
0.885858 0.608506 0.653131
0.963428 0.608256 0.647095
0.033697 0.736545 0.680466
0.105929 0.736135 0.672272
0.215106 0.735748 0.664534
0.349641 0.735389 0.657357
0.497567 0.735064 0.650844
0.646580 0.734776 0.645099
0.784103 0.734533 0.640225
0.897363 0.734338 0.636327
0.973498 0.734197 0.633507
0.034377 0.838970 0.654903
0.107891 0.838614 0.648658
0.218681 0.838303 0.643218
0.354702 0.838045 0.638687
0.503584 0.837844 0.635170
0.652704 0.837707 0.632768
0.789285 0.837640 0.631588
0.900681 0.837634 0.631480
0.975000 0.837634 0.631480
0.034846 0.907108 0.637284
0.109096 0.906916 0.634161
0.220531 0.906794 0.632192
0.356656 0.906750 0.631481
0.505000 0.906750 0.631480
0.653344 0.906750 0.631480
0.789350 0.906750 0.631480
0.900681 0.906750 0.631480
0.975000 0.906750 0.631480
0.030800 0.032900 0.900681
0.096200 0.032900 0.900681
0.194172 0.032900 0.900681
0.313858 0.032900 0.900681
0.444538 0.032899 0.900271
0.575916 0.032896 0.898445
0.697475 0.032889 0.895267
0.798496 0.032881 0.890854
0.867974 0.032870 0.885324
0.030800 0.102760 0.900674
0.096267 0.102754 0.899770
0.194649 0.102740 0.897438
0.315493 0.102718 0.893797
0.448342 0.102689 0.888964
0.582613 0.102653 0.883057
0.707503 0.102611 0.876196
0.811909 0.102564 0.868498
0.884369 0.102513 0.860082
0.030998 0.207307 0.892169
0.097202 0.207243 0.886931
0.197114 0.207166 0.880664
0.320319 0.207078 0.873484
0.456232 0.206980 0.865511
0.594014 0.206874 0.856863
0.722510 0.206762 0.847658
0.830200 0.206643 0.838014
0.905175 0.206521 0.828049
0.031500 0.334663 0.870667
0.098986 0.334500 0.862435
0.201097 0.334324 0.853570
0.327279 0.334138 0.844191
0.466692 0.333945 0.834417
0.608158 0.333746 0.824365
0.740127 0.333544 0.814154
0.850667 0.333341 0.803902
0.927467 0.333139 0.793728
0.032199 0.473018 0.840672
0.101291 0.472740 0.830783
0.205934 0.472457 0.820660
0.335303 0.472170 0.810420
0.478209 0.471883 0.800183
0.623086 0.471599 0.790066
0.757988 0.471322 0.780188
0.870608 0.471055 0.770667
0.948320 0.470802 0.761622
0.032992 0.610734 0.806687
0.103789 0.610364 0.796480
0.210965 0.610000 0.786436
0.343320 0.609645 0.776674
0.489267 0.609306 0.767313
0.636838 0.608985 0.758470
0.773723 0.608688 0.750263
0.887321 0.608417 0.742812
0.964810 0.608179 0.736233
0.033772 0.736403 0.773214
0.106152 0.736001 0.764027
0.215526 0.735623 0.755402
0.350262 0.735275 0.747457
0.498351 0.734962 0.740309
0.647454 0.734689 0.734078
0.784966 0.734461 0.728882
0.898105 0.734284 0.724838
0.974012 0.734162 0.722066
0.034436 0.838844 0.744756
0.108053 0.838503 0.737929
0.218957 0.838209 0.732061
0.355058 0.837970 0.727270
0.503947 0.837790 0.723676
0.652974 0.837676 0.721396
0.789349 0.837634 0.720548
0.900681 0.837634 0.720545
0.975000 0.837634 0.720545
0.034877 0.907035 0.725817
0.109163 0.906866 0.722687
0.220596 0.906770 0.720915
0.356656 0.906750 0.720545
0.505000 0.906750 0.720545
0.653344 0.906750 0.720545
0.789350 0.906750 0.720545
0.900681 0.906750 0.720545
0.975000 0.906750 0.720545
0.030800 0.032900 0.975000
0.096200 0.032900 0.975000
0.194172 0.032900 0.975000
0.313858 0.032900 0.974996
0.444693 0.032898 0.974057
0.576322 0.032894 0.971569
0.698194 0.032887 0.967660
0.799551 0.032877 0.962458
0.869345 0.032866 0.956091
0.030803 0.102759 0.974841
0.096313 0.102750 0.973323
0.194810 0.102733 0.970303
0.315853 0.102709 0.965909
0.448978 0.102677 0.960268
0.583583 0.102639 0.953509
0.708832 0.102596 0.945760
0.813579 0.102547 0.937148
0.886318 0.102495 0.927803
0.031037 0.207286 0.963993
0.097349 0.207218 0.957930
0.197459 0.207137 0.950796
0.320943 0.207046 0.942718
0.457196 0.206945 0.933824
0.595350 0.206837 0.924243
0.724209 0.206722 0.914103
0.832213 0.206602 0.903531
0.907407 0.206479 0.892655
0.031563 0.334609 0.939568
0.099200 0.334441 0.930409
0.201557 0.334262 0.920609
0.328059 0.334073 0.910297
0.467832 0.333878 0.899600
0.609662 0.333677 0.888646
0.741959 0.333475 0.877563
0.852749 0.333272 0.866479
0.929686 0.333072 0.855523
0.032277 0.472924 0.906440
0.101540 0.472645 0.895635
0.206444 0.472359 0.884619
0.336130 0.472072 0.873521
0.479371 0.471786 0.862469
0.624560 0.471504 0.851591
0.759712 0.471230 0.841015
0.872487 0.470967 0.830868
0.950232 0.470719 0.821280
0.033073 0.610608 0.869485
0.104039 0.610239 0.858482
0.211458 0.609878 0.847699
0.344088 0.609528 0.837264
0.490299 0.609195 0.827306
0.638084 0.608881 0.817953
0.775101 0.608592 0.809333
0.888724 0.608332 0.801573
0.966119 0.608106 0.794802
0.033846 0.736264 0.833577
0.106371 0.735869 0.823825
0.215935 0.735501 0.814723
0.350862 0.735164 0.806401
0.499099 0.734864 0.798987
0.648275 0.734606 0.792608
0.785759 0.734395 0.787392
0.898759 0.734236 0.783468
0.974422 0.734134 0.780963
0.034492 0.838723 0.803590
0.108206 0.838397 0.796538
0.219215 0.838122 0.790568
0.355382 0.837902 0.785807
0.504259 0.837744 0.782385
0.653171 0.837653 0.780429
0.789350 0.837634 0.780000
0.900681 0.837634 0.780000
0.975000 0.837634 0.780000
0.034905 0.906970 0.784400
0.109218 0.906825 0.781496
0.220636 0.906755 0.780106
0.356656 0.906750 0.780000
0.505000 0.906750 0.780000
0.653344 0.906750 0.780000
0.789350 0.906750 0.780000
0.900681 0.906750 0.780000
0.975000 0.906750 0.780000
